X: 3
T: The Maid At The Well
R: jig
M: 6/8
L: 1/8
K: Gmaj
| GDD EDD | GAB c2d | edc BcA | BGE EDF |GDD EDD | GAB c2d | edc BcA |1AGF G2F :|2AGF GBd|| gdd edd | gdB c2d | edc BcA | BGE EDf |gdd edd | gdB c2d | edc BcA | AGF GBd || gdd edd | gdB c2d | edc BcA | BGE EDF|GDD EDD | GAB c2d | edc BcA |AGF G3|


Tune 752	Setting 13855

